X:46458307956947
T:8-11-11-10-6-9-10-8-6-11-3-11-10-5-3-12
%%setfont-1 Courier-Bold 8
T:$1K.516f::152:87:165:156:80:86:62:127:25:4:126:164:137:160:116:131::$0
T:$1Perm. No.: 46458307956947$0
M:3/8
L:1/8
Q:1/8=111
%%staves [1 2]
V:1 clef=treble
V:2 clef=bass
K:C
%1
[V:1]|: gf/e/d/c/ |\
[V:2]|: [E,2C,2]z |\
%2
[V:1] gce |\
[V:2] [E,2C,2][G,C,] |\
%3
[V:1] (dBG) |\
[V:2] B,,2z |\
%4
[V:1] c/G/e/c/g |\
[V:2] [G,2E,2]z |\
%5
[V:1] d!turn!A^f |\
[V:2] C,2z |\
%6
[V:1] dd/g/b |\
[V:2] [G,2B,,2]z |\
%7
[V:1] e/c/B/G/A/^F/ \
[V:2] C,D,D,, \
%8a
[V:1]|1 [g2d2B2G2]z :|2
[V:2]|1 G,,G,/=F,/E,/D,/ :|2
%8b
[V:1] [g2d2B2G2]z |:\
[V:2] G,,B,/G,/^F,/E,/ |:\
%9
[V:1] D/^F/A/d/^f/a/ |\
[V:2] D,2C, |\
%10
[V:1] g!trill!d2 |\
[V:2] G,,/B,,/G,B, |\
%11
[V:1] c/G/c/e/g/[e/c/] |\
[V:2] E,2 E,/C,/ |\
%12
[V:1] dG2 |\
[V:2] G,/^F,/G,/D,/B,,/G,,/ |\
%13
[V:1] cGe |\
[V:2] [E,/C,/]G,/[E,/C,/]G,/[E,/C,/]G,/ |\
%14
[V:1] c/B/c/e/G/c/ |\
[V:2] [E,2C,2][E,C,] |\
%15
[V:1] d/f/a/f/d/B/ |\
[V:2] F,2G, |\
%16
[V:1] c2z :|]
[V:2] C,G,,C,, :|]
